sack.svg

<svg fill="currentColor" viewBox="0 0 24 24"><path d="M16 9c4 2 5 9 5 9s1 4-5 4H8c-6 0-5-4-5-4s1-7 5-9m6-5-2-2-2 2-4-2 2 5h8l2-5z"/></svg>

<svg  viewBox="0 0 24 24" fill="currentColor"><path  d="M16,9C20,11 21,18 21,18C21,18 22,22 16,22C10,22 8,22 8,22C2,22 3,18 3,18C3,18 4,11 8,9M14,4L12,2L10,4L6,2L8,7H16L18,2L14,4Z"/></svg>
